X: 1
T: Hamburska fr\aan N\"arke
O: David Bastviken 97/1
R: Hamburska
N: Learned from David Bastviken, Feb 1997
Z: John Chambers <jc@trillian.mit.edu>
M: 3/4
L: 1/8
K: G
|: D \
| "G"G>B {c}d2 d2 | "C"e>f {f}g2 "(D7)"~f2 | "G"e>e d2 "D7"A>B | (3cdc "G"B2 G>D |
| "G"G>B {c}d2 d2 | "C"e>f g<f a>g | "G"e>e d<B "D7"d>c | A<F "G"{F}G3 :|
|: A- \
| "D7"A2 A<F A>c | "G"c>B G<B d2- | "D7"d>c A<F A>c | "G"c>B G<B d2- | "D7"d>c A<F D>F | (3ABA "G"G3 :|
